X: 41669
T: Upperchurch, The
R: polka
M: 2/4
K: Gmajor
|:GD GA|B2 Bc/A/|GD GA|B2 B>d|
ed BG|A2 AB/d/|ed BA|1 G2 GA:|2 G2 Bd||
|:g2 ge|f2 fd|ec/e/ ge|d2 d2|
ed BG|A2 AB/d/|ed BA|1 G2 Bd:|2 G2 GB/A/||

